svgs/thenx.svg

<svg width="192" height="192" viewBox="0 0 192 192" fill="none" xmlns="http://www.w3.org/2000/svg">
<g clip-path="url(#clip0_127_2)">
<path d="M22 83H37.5M53 83H37.5M37.5 83V114" stroke="black" stroke-width="8" stroke-linecap="round" stroke-linejoin="round"/>
<path d="M170 83H151V97M169.08 111H151V97M151 97H163.565" stroke="black" stroke-width="8" stroke-linecap="round" stroke-linejoin="round"/>
<path d="M108 29V44.5382M108 61V44.5382M86 29V44.5382M86 60.0764V44.5382M86 44.5382H108" stroke="black" stroke-width="8" stroke-linecap="round" stroke-linejoin="round"/>
<path d="M108 136.413V161H107.473L89.5277 136H89V160.793" stroke="black" stroke-width="8" stroke-linecap="round" stroke-linejoin="round"/>
<path d="M170 22L22 170" stroke="black" stroke-width="12" stroke-linecap="round" stroke-linejoin="round"/>
<path d="M22 22L170 170" stroke="black" stroke-width="12" stroke-linecap="round" stroke-linejoin="round"/>
</g>
<defs>
<clipPath id="clip0_127_2">
<rect width="192" height="192" fill="white"/>
</clipPath>
</defs>
</svg>

<svg width="192" height="192" fill="none" xmlns="http://www.w3.org/2000/svg"><g clip-path="url(#a)" stroke="#000" stroke-linecap="round" stroke-linejoin="round"><path d="M22 83h15.5M53 83H37.5m0 0v31M170 83h-19v14m18.08 14H151V97m0 0h12.565M108 29v15.538M108 61V44.538M86 29v15.538m0 15.538V44.538m0 0h22M108 136.413V161h-.527l-17.945-25H89v24.793" stroke-width="8"/><path d="M170 22 22 170M22 22l148 148" stroke-width="12"/></g><defs><clipPath id="a"><path fill="#fff" d="M0 0h192v192H0z"/></clipPath></defs></svg>
